public/assets/images/icons/red/visibility-visible/tan.svg

<svg width="16" height="16" xmlns="http://www.w3.org/2000/svg" viewBox="0 0 16 16" shape-rendering="geometricPrecision" fill="#cb1800"><defs><mask id="a"><rect fill="#fff" width="100%" height="100%"/><path d="M12.997.858a4.809 4.809 0 0 0-4.253 2.563 4.81 4.81 0 0 0 8.506 0A4.812 4.812 0 0 0 12.997.858z" fill="#000"/></mask></defs><path d="M12.971 1.607c-1.315 0-2.454.74-3.029 1.825a3.425 3.425 0 0 0 6.058 0 3.43 3.43 0 0 0-3.029-1.825z"/><g mask="url(#a)"><path d="M2.907 3.45h-.953v8.978h13.052V3.45H2.907zm.806 7.455c0-.927.263-1.39.635-1.39.423 0 .623.511.623 1.373 0 .224-.016.417-.043.587H3.756a3.514 3.514 0 0 1-.043-.57zm2.164.571h-.253c.033-.186.055-.384.055-.604 0-1.094-.417-1.895-1.314-1.895-.869 0-1.359.771-1.359 1.934 0 .203.021.39.054.564h-.153v-7.07h2.972l-.002 7.071zm4.037 0H6.832v-7.07h3.082v7.07zm4.138 0h-3.188v-7.07h3.188v7.07zM.634 5.469h.954v5.09H.634zm14.779 0h.952v5.09h-.952z"/><path d="M8.646 8.347h.664v-.944h.48V6.87h-.48V4.631h-.83L6.959 6.946v.457h1.687v.944zM7.634 6.87v-.01l.687-1.018c.114-.206.211-.394.325-.629h.022c-.01.224-.022.436-.022.647v1.012H7.634V6.87zm6.112 3.699h-1.521v-.012l.32-.279c.65-.602 1.12-1.127 1.12-1.779 0-.605-.399-1.125-1.224-1.125-.469 0-.875.164-1.143.383l.205.497c.188-.142.464-.31.796-.31.485 0 .662.293.662.623-.006.492-.417.938-1.291 1.75l-.441.406v.428h2.517v-.582z"/></g></svg>

<?xml version="1.0"?><!DOCTYPE svg PUBLIC "-//W3C//DTD SVG 1.1//EN" "http://www.w3.org/Graphics/SVG/1.1/DTD/svg11.dtd"><svg width="16px" height="16px" xmlns="http://www.w3.org/2000/svg" viewBox="0 0 16 16" shape-rendering="geometricPrecision" fill="#cb1800"><defs><mask id="visibility-visible-path"><rect fill="#fff" width="100%" height="100%"/><path d="M12.997,0.858c-1.845,0-3.446,1.039-4.253,2.563c0.808,1.523,2.408,2.562,4.253,2.562 c1.844,0,3.444-1.039,4.253-2.562C16.441,1.897,14.841,0.858,12.997,0.858z" fill="#000"/></mask></defs><path display="inline" d="M12.971,1.607c-1.315,0-2.454,0.74-3.029,1.825 c0.575,1.085,1.715,1.825,3.029,1.825c1.314,0,2.453-0.74,3.029-1.825C15.424,2.348,14.284,1.607,12.971,1.607z" fill="#cb1800"/><g mask="url(#visibility-visible-path)"><g><path d="M2.907,3.45H1.954v0.953v7.071v0.954h0.953h11.145h0.954v-0.954V4.405V3.45h-0.954H2.907z M3.713,10.905 c0-0.927,0.263-1.39,0.635-1.39c0.423,0,0.623,0.511,0.623,1.373c0,0.224-0.016,0.417-0.043,0.587H3.756 C3.729,11.311,3.713,11.122,3.713,10.905z M5.877,11.476H5.624c0.033-0.186,0.055-0.384,0.055-0.604 c0-1.094-0.417-1.895-1.314-1.895c-0.869,0-1.359,0.771-1.359,1.934c0,0.203,0.021,0.39,0.054,0.564H2.907v-7.07h2.972 L5.877,11.476L5.877,11.476z M9.914,11.476H6.832v-7.07h3.082V11.476z M14.052,11.476h-3.188v-7.07h3.188V11.476z"/><rect x="0.634" y="5.469" width="0.954" height="5.09"/><rect x="15.413" y="5.469" width="0.952" height="5.09"/><path d="M8.646,8.347H9.31V7.403H9.79V6.87H9.31V4.631H8.48L6.959,6.946v0.457h1.687V8.347z M7.634,6.87V6.86l0.687-1.018 c0.114-0.206,0.211-0.394,0.325-0.629h0.022C8.658,5.437,8.646,5.649,8.646,5.86v1.012H7.634V6.87z"/><path d="M13.746,10.569h-1.521v-0.012l0.32-0.279c0.65-0.602,1.12-1.127,1.12-1.779c0-0.605-0.399-1.125-1.224-1.125 c-0.469,0-0.875,0.164-1.143,0.383l0.205,0.497c0.188-0.142,0.464-0.31,0.796-0.31c0.485,0,0.662,0.293,0.662,0.623 c-0.006,0.492-0.417,0.938-1.291,1.75l-0.441,0.406v0.428h2.517L13.746,10.569L13.746,10.569z"/></g></g></svg>
